X: 10758
T: Dr. Keith, Aberdeen
R: strathspey
M: 4/4
K: Fmajor
|(A/B/c) f>d c2 A>c|d<f c>A B<G G>B|(A/B/c) f>d c2 A>c|=B<GB<g e<c c>B|
(A/B/c) f>d c2 A>c|d<f c>A B<G G>B|A>c (=B/c/d) c2 A>F|(D/E/F) E<c A<F F||
B|A<f (e/f/g) f2 c>f|(3agf (3efg (3fed (3cBA|B>g ^f/g/a g2 d>g|(3bag (3 ^fga (3g=fe (3dcB|
A>f (e/f/g) f2 c>f|(3agf (3efg (3fed (3cBA|(Bg) g2 (Af) f2|bagf edc||

